X:1
T:His Yoke Is Easy
T:Ralph Erskine Hudson, 1885
T:His Yoke Is Easy
T:Public Domain
T:Public Domain
C:Ralph Erskine Hudson, 1885
Z:Public Domain
%%score 1 ( 2 3 )
L:1/8
M:6/8
K:Bb
V:1 treble 
V:2 bass 
V:3 bass 
V:1
 [DF] | [DF][EG][DF] [Fd]2 [DB] | [EG][FA][GB] [DF]2 [DF] | [EG][FA][GB] [DF]2 [B,D] | %4
w: 1.~The|Lord is my shep- herd;|I shall not want. He|mak- eth me down to|
w: 2.~My|soul cri- eth out: “Re-|store me a- gain, And|give me the strength to|
w: 3.~Yea,|tho’ I should walk the|val- ley of death, Yet|why should I fear from|
 [A,C]3- [A,C]2 [EF] | [Fd]2 [Ec] [DB]2 [DF] | [EG]2 [FA] [GB]2 [EG] | [DF]2 [DB] [FA]2 [Ec] | %8
w: lie * In|pas- tures green He|lead- eth me The|qui- et wa- ters|
w: take * The|nar- row path of|right- eous- ness, E’en|for His own name’s|
w: ill? * For|Thou art with me,|and Thy rod And|staff me com- fort|
 [DB]3- [DB]2 ||"^Refrain" [DF] | [DF]2 [DF] [B,D][CE][DF] | [EG][EG][EG] [DF]2 [B,D] | %12
w: by. *||||
w: sake.” *||||
w: still. *||||
 [DF]2 [DF] [CE]2 [CE] | [DF]2 [CE] [B,D]2 [DF] | [DF]2 [DB] [Fd]2 [FB] | [Ec][EB][EG] [DF]2 [DF] | %16
w: ||||
w: ||||
w: ||||
 [EG]2 [DB] [FA]2 [Ec] | [EB]3- [EB]2 |] %18
w: ||
w: ||
w: ||
V:2
 [B,,B,] | [B,,B,][B,,B,][B,,B,] [B,,B,]2 [B,,B,] | [E,B,][E,B,][E,B,] [B,,B,]2 [B,,B,] | %3
w: ~|~ ~ ~ ~ ~|~ ~ ~ ~ ~|
 [E,B,][E,B,][E,B,] [B,,B,]2 [B,,F,] | F,3- F,2 [F,A,] | [B,,B,]2 [B,,F,] [B,,F,]2 [B,,B,] | %6
w: ~ ~ ~ ~ ~|~ * ~|~ ~ ~ ~|
 [E,B,]2 [E,B,] [E,B,]2 [E,B,] | [F,B,]2 [F,B,] [F,C]2 [F,A,] | [B,,F,]3- [B,,F,]2 || [B,,B,] | %10
w: ~ ~ ~ ~|~ ~ ~ ~|His *|yoke|
 [B,,B,]2 [B,,B,] [B,,F,][B,,F,][B,,B,] | [E,B,][E,B,][E,B,] [B,,B,]2 [B,,F,] | %12
w: is ea- sy; His bur-|den is light. I’ve found|
 [F,B,]2 [F,B,] [F,A,]2 [F,A,] | [F,B,]2 [F,A,] [B,,F,]2 [B,,B,] | %14
w: it so; I’ve found|it so. He lead-|
 [B,,B,]2 [B,,F,] [B,,B,]2 [D,B,] | [E,G,][E,G,][E,B,] [B,,B,]2 [B,,B,] | %16
w: eth me by day|and by night Where liv-|
 [E,B,]2 [G,B,] [F,C]2 [F,A,] | [B,,F,]3- [B,,F,]2 |] %18
w: ing wa- ters flow.||
V:3
 x | x6 | x6 | x6 | F,3- F,2 x | x6 | x6 | x6 | x5 || x | x6 | x6 | x6 | x6 | x6 | x6 | x6 | x5 |] %18
w: ||||~ *||||||||||||||

